X: 608
T:La Partida
R:
C:
Z:Gerry Strong
M:3/4
L:1/8
N:a Venezuelan tune on Kevin Burke's Open House
N:Posted to the woodenflute mailing list December 2002
K:Em
BcB _B=B|:g3 BgB|g3 BgB|g2f =f^f2 -|fBc B_B=B|
f3 BfB|f3 bag|f2e _e=e2 -|eBc B_B=B|
e3 _e=ef|e3 dcB|B2A ^GA2 -|AcB AGF|
~E3 FGA|~B3 AFG|~E2~G2~B2|1 eBc B_B=B:|2 ez3B2|
|:baB baB|baB baB|agB agB|agB agB|
gfB gfB|gfB gfB|feB feB|feB feB|
edB edB|edB edB|B2A ^GA2 -|AcB AGF|
~E3 FGA|~B3 AFG|~E2~G2~B2|1 ez3B2:|2 e2z4|
<end>
<start>
